build/svg/cmd/sc_insertannotation.svg

<?xml version="1.0" encoding="UTF-8" standalone="no"?>
<svg
   xmlns:dc="http://purl.org/dc/elements/1.1/"
   xmlns:cc="http://creativecommons.org/ns#"
   xmlns:rdf="http://www.w3.org/1999/02/22-rdf-syntax-ns#"
   xmlns:svg="http://www.w3.org/2000/svg"
   xmlns="http://www.w3.org/2000/svg"
   xmlns:sodipodi="http://sodipodi.sourceforge.net/DTD/sodipodi-0.dtd"
   xmlns:inkscape="http://www.inkscape.org/namespaces/inkscape"
   viewBox="0 0 16 16"
   version="1.1"
   id="svg4"
   sodipodi:docname="sc_insertannotation.svg"
   inkscape:export-filename="/home/jupiter007/Libreoffice yaru theme fullcolor/build/cmd/sc_insertannotation.png"
   inkscape:export-xdpi="96"
   inkscape:export-ydpi="96"
   inkscape:version="0.92.4 (5da689c313, 2019-01-14)">
  <metadata
     id="metadata10">
    <rdf:RDF>
      <cc:Work
         rdf:about="">
        <dc:format>image/svg+xml</dc:format>
        <dc:type
           rdf:resource="http://purl.org/dc/dcmitype/StillImage" />
      </cc:Work>
    </rdf:RDF>
  </metadata>
  <defs
     id="defs8" />
  <sodipodi:namedview
     pagecolor="#ffffff"
     bordercolor="#666666"
     borderopacity="1"
     objecttolerance="10"
     gridtolerance="10"
     guidetolerance="10"
     inkscape:pageopacity="0"
     inkscape:pageshadow="2"
     inkscape:window-width="1920"
     inkscape:window-height="1011"
     id="namedview6"
     showgrid="true"
     inkscape:zoom="32"
     inkscape:cx="3.4225178"
     inkscape:cy="8.426313"
     inkscape:window-x="1920"
     inkscape:window-y="32"
     inkscape:window-maximized="1"
     inkscape:current-layer="svg4">
    <inkscape:grid
       type="xygrid"
       id="grid817" />
  </sodipodi:namedview>
  <path
     sodipodi:nodetypes="ssscccsscsss"
     inkscape:connector-curvature="0"
     d="M 5,2 C 3,2 2,2 2,4 v 5 c 0,2 1,2 3,2 l 4,3 v -3 h 2 c 2,0 3,0 3,-2 V 8 4 C 14,2 13,2 11,2 Z"
     style="opacity:0.6;fill:#000000;fill-opacity:1;fill-rule:nonzero;stroke:#000000;stroke-width:2;stroke-linecap:butt;stroke-linejoin:round;stroke-miterlimit:4;stroke-dasharray:none;stroke-dashoffset:0;stroke-opacity:1"
     id="path816" />
  <path
     id="rect823"
     style="opacity:1;fill:#fa9381;fill-opacity:1;fill-rule:nonzero;stroke:none;stroke-width:0.00106905;stroke-linecap:butt;stroke-linejoin:round;stroke-miterlimit:4;stroke-dasharray:none;stroke-dashoffset:0;stroke-opacity:1"
     d="M 5,2 C 3,2 2,2 2,4 v 5 c 0,2 1,2 3,2 l 4,3 v -3 h 2 c 2,0 3,0 3,-2 V 8 4 C 14,2 13,2 11,2 Z"
     inkscape:connector-curvature="0"
     sodipodi:nodetypes="ssscccsscsss" />
  <path
     style="opacity:1;fill:#ffffff;fill-opacity:1;fill-rule:nonzero;stroke:none;stroke-width:0.00097591;stroke-linecap:butt;stroke-linejoin:round;stroke-miterlimit:4;stroke-dasharray:none;stroke-dashoffset:0;stroke-opacity:1"
     d="M 4.3333334,5 H 11.666666 C 11.851334,5 12,5.223 12,5.5 12,5.777 11.851334,6 11.666666,6 H 4.3333334 C 4.1486666,6 4,5.777 4,5.5 4,5.223 4.1486666,5 4.3333334,5 Z"
     id="path822"
     inkscape:connector-curvature="0"
     sodipodi:nodetypes="sssssss" />
  <path
     sodipodi:nodetypes="sssssss"
     inkscape:connector-curvature="0"
     id="path828"
     d="M 4.3333334,7 H 11.666666 C 11.851334,7 12,7.223 12,7.5 12,7.777 11.851334,8 11.666666,8 H 4.3333334 C 4.1486666,8 4,7.777 4,7.5 4,7.223 4.1486666,7 4.3333334,7 Z"
     style="opacity:1;fill:#ffffff;fill-opacity:1;fill-rule:nonzero;stroke:none;stroke-width:0.00097591;stroke-linecap:butt;stroke-linejoin:round;stroke-miterlimit:4;stroke-dasharray:none;stroke-dashoffset:0;stroke-opacity:1" />
  <circle
     style="opacity:1;vector-effect:none;fill:#46a926;fill-opacity:1;stroke:none;stroke-width:3.49999976;stroke-linecap:butt;stroke-linejoin:round;stroke-miterlimit:4;stroke-dasharray:none;stroke-dashoffset:0;stroke-opacity:1"
     id="path2644"
     cy="12.5"
     cx="12.499998"
     r="3.5" />
  <path
     inkscape:connector-curvature="0"
     id="path1063"
     overflow="visible"
     font-weight="400"
     style="color:#000000;font-weight:400;line-height:normal;font-family:sans-serif;text-indent:0;text-align:start;text-decoration:none;text-decoration-line:none;text-decoration-style:solid;text-decoration-color:#000000;text-transform:none;white-space:normal;overflow:visible;isolation:auto;mix-blend-mode:normal;fill:#ffffff;fill-opacity:1;marker:none"
     d="m 12,10 v 2 H 9.999999 v 1 H 12 v 2 h 1 v -2 h 2 v -1 h -2 v -2 z" />
</svg>

<svg xmlns="http://www.w3.org/2000/svg" viewBox="0 0 16 16"><path d="M5 2C3 2 2 2 2 4v5c0 2 1 2 3 2l4 3v-3h2c2 0 3 0 3-2V4c0-2-1-2-3-2z" opacity=".6" stroke="#000" stroke-width="2" stroke-linejoin="round"/><path d="M5 2C3 2 2 2 2 4v5c0 2 1 2 3 2l4 3v-3h2c2 0 3 0 3-2V4c0-2-1-2-3-2z" fill="#fa9381"/><path d="M4.333 5h7.334c.184 0 .333.223.333.5s-.149.5-.333.5H4.333C4.15 6 4 5.777 4 5.5s.149-.5.333-.5zM4.333 7h7.334c.184 0 .333.223.333.5s-.149.5-.333.5H4.333C4.15 8 4 7.777 4 7.5s.149-.5.333-.5z" fill="#fff"/><circle cy="12.5" cx="12.5" r="3.5" fill="#46a926"/><path overflow="visible" font-weight="400" style="line-height:normal;text-indent:0;text-align:start;text-decoration-line:none;text-decoration-style:solid;text-decoration-color:#000;text-transform:none;white-space:normal;isolation:auto;mix-blend-mode:normal;marker:none" d="M12 10v2h-2v1h2v2h1v-2h2v-1h-2v-2z" color="#000" font-family="sans-serif" fill="#fff"/></svg>
